images/logo_black.svg

<?xml version="1.0" encoding="UTF-8" standalone="no"?>
<svg width="74px" height="54px" viewBox="0 0 74 54" version="1.1" xmlns="http://www.w3.org/2000/svg" xmlns:xlink="http://www.w3.org/1999/xlink">
    <!-- Generator: Sketch 42 (36781) - http://www.bohemiancoding.com/sketch -->
    <title>logo_black</title>
    <desc>Created with Sketch.</desc>
    <defs></defs>
    <g id="Page-1" stroke="none" stroke-width="1" fill="none" fill-rule="evenodd">
        <g id="desktop-1" transform="translate(-60.000000, -25.000000)" fill-rule="nonzero" fill="#3C4349">
            <g id="Header" transform="translate(60.000000, 25.000000)">
                <g id="logo_black">
                    <g id="Layer_1">
                        <path d="M31.1930556,20.1958333 L32.5291667,18.6027778 C30.2166667,16.65 27.4416667,15.2625 24.4611111,14.5430556 L24.4611111,2.41527778 L27.1847222,2.41527778 L27.1847222,0.359722222 L22.4055556,0.359722222 L22.4055556,16.2388889 L23.2277778,16.3930556 C26.1569444,17.0097222 28.8805556,18.2944444 31.1930556,20.1958333 Z" id="Shape"></path>
                        <path d="M19.8875,51.2861111 C10.175,51.2861111 2.3125,43.4236111 2.3125,33.7111111 C2.3125,25.8486111 7.50277778,18.9625 15.0569444,16.8041667 C15.5194444,16.7013889 15.9819444,16.5472222 16.4444444,16.4958333 L17.2666667,16.3416667 L17.2666667,0.411111111 L12.5902778,0.411111111 L12.5902778,2.46666667 L15.2111111,2.46666667 L15.2111111,14.6972222 L14.4916667,14.9027778 C4.05972222,17.8833333 -1.95277778,28.7777778 1.02777778,39.2097222 C3.44305556,47.6375 11.1513889,53.4444444 19.8875,53.4444444 C24.3069444,53.4444444 28.5722222,52.0055556 32.0152778,49.2305556 L30.7305556,47.6375 C27.6472222,50.0013889 23.7930556,51.2861111 19.8875,51.2861111 Z" id="Shape"></path>
                        <polygon id="Shape" points="37 41.8819444 37 23.6902778 34.3277778 23.6902778 34.3277778 44.0916667 45.4277778 44.0916667 45.4277778 41.8819444"></polygon>
                        <path d="M56.8875,32.6319444 C55.7569444,31.3472222 54.0611111,30.5763889 52.2625,30.525 C50.4638889,30.4222222 48.6652778,31.1416667 47.3805556,32.4263889 C46.0958333,33.7111111 45.3763889,35.4583333 45.3763889,37.3083333 C45.325,39.0041667 45.9930556,40.7513889 47.2263889,42.0361111 L47.2777778,42.0875 C47.3805556,42.1388889 47.4319444,42.2416667 47.5347222,42.2930556 C47.6375,42.3958333 47.7402778,42.4986111 47.8430556,42.55 C49.025,43.5777778 50.5152778,44.0402778 52.0055556,44.0402778 C53.4958333,44.0402778 55.0375,43.5263889 56.2194444,42.4986111 L56.2194444,43.7833333 L58.6861111,43.7833333 L58.6861111,37.3597222 C58.7888889,35.6638889 58.1208333,33.9680556 56.8875,32.6319444 Z M56.2194444,37.2569444 L56.2194444,37.2569444 C56.2708333,38.4902778 55.8083333,39.6208333 54.9861111,40.3916667 C54.2152778,41.2652778 53.0847222,41.7277778 51.9027778,41.6763889 C50.7722222,41.625 49.6930556,41.1111111 49.025,40.2375 C48.2541667,39.4666667 47.8430556,38.3361111 47.8430556,37.2055556 C47.8430556,36.1263889 48.3055556,35.0472222 49.1277778,34.225 C49.8986111,33.4027778 50.9263889,32.9916667 52.1083333,32.9916667 C53.1875,32.9916667 54.2152778,33.4541667 54.9861111,34.2763889 C55.7569444,35.0986111 56.2194444,36.1777778 56.2194444,37.2569444 Z" id="Shape"></path>
                        <path d="M71.9958333,32.5291667 C70.7111111,31.1930556 68.9125,30.4736111 67.1652778,30.5763889 C65.675,30.6277778 64.2361111,31.1416667 63.1569444,32.1180556 L63.1569444,23.6388889 L60.6902778,23.6388889 L60.6902778,37.3597222 C60.5875,39.1583333 61.3069444,40.9055556 62.6430556,42.1902778 L62.7972222,42.3444444 C64.0819444,43.5263889 65.675,44.1430556 67.3194444,44.1430556 C69.0666667,44.1430556 70.8138889,43.475 72.0986111,42.0875 C73.2805556,40.8027778 73.9486111,39.1583333 73.9486111,37.3597222 C73.9486111,35.5611111 73.2805556,33.8138889 71.9958333,32.5291667 Z M64.3902778,40.4430556 C63.5680556,39.6208333 63.1055556,38.4388889 63.1055556,37.2569444 C63.1569444,36.075 63.6194444,35.0472222 64.3902778,34.225 C65.1097222,33.4027778 66.0861111,32.9916667 67.2680556,32.9916667 C68.3472222,32.9916667 69.4263889,33.4541667 70.2486111,34.2763889 C71.0708333,35.0986111 71.5333333,36.1777778 71.5333333,37.2569444 C71.5333333,38.4388889 71.1222222,39.5180556 70.3513889,40.3402778 C69.6319444,41.1625 68.6041667,41.625 67.4736111,41.6763889 C66.2916667,41.7791667 65.2125,41.3166667 64.3902778,40.4430556 Z" id="Shape"></path>
                        <path d="M20.7097222,23.6902778 L13.6694444,23.6902778 L13.6694444,44.0916667 L20.6583333,44.0916667 C26.2597222,44.0916667 30.8847222,39.5180556 30.8847222,33.8652778 C30.8847222,28.2125 26.3111111,23.6902778 20.7097222,23.6902778 Z M28.1097222,34.0708333 C28.0069444,37.925 24.975,41.0083333 21.1208333,41.1111111 L16.3416667,41.1111111 L16.3416667,26.7222222 L21.1208333,26.7222222 C25.0777778,26.7736111 28.1611111,30.1138889 28.1097222,34.0708333 Z" id="Shape"></path>
                    </g>
                </g>
            </g>
        </g>
    </g>
</svg>

<svg width="74" height="54" viewBox="0 0 74 54" xmlns="http://www.w3.org/2000/svg"><title>logo_black</title><g fill-rule="nonzero" fill="#3C4349"><path d="M31.193 20.196l1.336-1.593c-2.313-1.953-5.088-3.34-8.07-4.06V2.415h2.725V.36h-4.78v15.88l.823.153c2.93.617 5.653 1.9 7.965 3.803zM19.887 51.286c-9.712 0-17.575-7.862-17.575-17.575 0-7.86 5.19-14.748 12.745-16.906.462-.103.925-.257 1.387-.308l.823-.154V.412H12.59v2.055h2.62v12.23l-.718.206C4.06 17.883-1.953 28.778 1.028 39.21c2.415 8.428 10.123 14.234 18.86 14.234 4.42 0 8.684-1.438 12.127-4.213L30.73 47.64c-3.083 2.363-6.937 3.648-10.843 3.648zM37 41.882V23.69h-2.672v20.402h11.1v-2.21M56.888 32.632c-1.13-1.285-2.827-2.056-4.625-2.107-1.8-.103-3.598.617-4.882 1.9-1.284 1.286-2.004 3.033-2.004 4.883-.05 1.696.617 3.443 1.85 4.728l.052.05c.103.053.154.156.257.207.103.103.205.206.308.257 1.182 1.028 2.672 1.49 4.163 1.49 1.49 0 3.032-.514 4.213-1.54v1.283h2.466V37.36c.103-1.696-.565-3.392-1.798-4.728zm-.67 4.625c.053 1.233-.41 2.364-1.232 3.135-.77.873-1.9 1.336-3.083 1.284-1.13-.05-2.21-.565-2.878-1.44-.77-.77-1.182-1.9-1.182-3.03 0-1.08.463-2.16 1.285-2.98.77-.823 1.798-1.234 2.98-1.234 1.08 0 2.107.462 2.878 1.284.77.823 1.233 1.902 1.233 2.98zM71.996 32.53c-1.285-1.337-3.084-2.056-4.83-1.954-1.49.052-2.93.566-4.01 1.542v-8.48H60.69V37.36c-.102 1.798.617 3.546 1.953 4.83l.154.154c1.285 1.182 2.878 1.8 4.522 1.8 1.747 0 3.494-.67 4.78-2.056 1.18-1.285 1.85-2.93 1.85-4.728 0-1.8-.67-3.546-1.954-4.83zm-7.606 7.913c-.822-.822-1.284-2.004-1.284-3.186.05-1.182.513-2.21 1.284-3.032.72-.822 1.696-1.233 2.878-1.233 1.08 0 2.158.462 2.98 1.284.823.823 1.285 1.902 1.285 2.98 0 1.183-.41 2.262-1.182 3.084-.718.822-1.746 1.285-2.876 1.336-1.182.103-2.26-.36-3.084-1.233z"/><path d="M20.71 23.69h-7.04v20.402h6.988c5.602 0 10.227-4.574 10.227-10.227 0-5.653-4.574-10.175-10.175-10.175zm7.4 10.38c-.103 3.855-3.135 6.938-6.99 7.04h-4.778V26.723h4.78c3.956.052 7.04 3.392 6.988 7.35z"/></g></svg>
